src/huzzahs/envelope.svg

<svg enable-background="new 0 0 200 200" viewBox="0 0 200 200" xmlns="http://www.w3.org/2000/svg"><path d="m85.9 28.1-62.4 62.4c-2.2 2.2-3.5 5.3-3.5 8.5v79c0 11 9 20 20 20h120c11 0 20-9 20-20v-79c0-3.2-1.3-6.2-3.5-8.5l-62.3-62.3c-7.9-7.9-20.5-7.9-28.3-.1z" style="fill:#ffc646;stroke:#253540;stroke-width:4;stroke-linecap:round;stroke-linejoin:round;stroke-miterlimit:10"/><path d="m170 106.5v59.5c0 9.9-8.1 18-18 18h-120c-3.6 0-6.9-1.1-9.7-2.9 1.5 8.4 8.9 14.9 17.7 14.9h120c9.9 0 18-8.1 18-18v-79c0-.2 0-.3 0-.4z" fill="#d79400"/><g stroke-linecap="round" stroke-linejoin="round" stroke-miterlimit="10" stroke-width="4"><path d="m190 46v16" fill="none" stroke="#f5b126"/><path d="m182 54h16" fill="none" stroke="#f5b126"/><path d="m46 16v12" fill="none" stroke="#f5b126"/><path d="m40 22h12" fill="none" stroke="#f5b126"/><path d="m144 2v12" fill="none" stroke="#f5b126"/><path d="m138 8h12" fill="none" stroke="#f5b126"/><path d="m114 56v16" fill="none" stroke="#fff"/><path d="m106 64h16" fill="none" stroke="#fff"/><circle cx="10" cy="59" fill="none" r="8" stroke="#f5b126"/><circle cx="157" cy="148" fill="none" r="6" stroke="#fff"/><path d="m22 96 50 50 13.9-13.9c7.8-7.8 20.5-7.8 28.3 0l13.8 13.9 50-50z" fill="#ffe8b5" stroke="#253540"/><path d="m128 146 46 46" fill="none" stroke="#253540"/><path d="m72 146-46 46" fill="none" stroke="#253540"/><path d="m72 104v16" fill="none" stroke="#fff"/><path d="m64 112h16" fill="none" stroke="#fff"/><path d="m178 198h-158" fill="#f1f3f5" stroke="#253540"/><path d="m186 198h4" fill="none" stroke="#253540"/><path d="m10 198h2" fill="none" stroke="#253540"/></g></svg>

<?xml version="1.0" encoding="utf-8"?>
<!-- Generator: Adobe Illustrator 19.0.1, SVG Export Plug-In . SVG Version: 6.00 Build 0)  -->
<svg version="1.1" xmlns="http://www.w3.org/2000/svg" xmlns:xlink="http://www.w3.org/1999/xlink" x="0px" y="0px"
	 viewBox="0 0 200 200" style="enable-background:new 0 0 200 200;" xml:space="preserve">
<style type="text/css">
	.st0{fill:#F1F3F5;stroke:#253540;stroke-width:4;stroke-linecap:round;stroke-linejoin:round;stroke-miterlimit:10;}
	.st1{fill:#D6DDE3;}
	.st2{fill:#FFC646;stroke:#253540;stroke-width:4;stroke-linecap:round;stroke-miterlimit:10;}
	.st3{fill:#FFC646;stroke:#253540;stroke-width:4;stroke-linecap:round;stroke-linejoin:round;stroke-miterlimit:10;}
	.st4{fill:none;stroke:#253540;stroke-width:4;stroke-linecap:round;stroke-linejoin:round;stroke-miterlimit:10;}
	.st5{fill:#D79400;}
	.st6{fill:#FFFFFF;stroke:#253540;stroke-width:4;stroke-miterlimit:10;}
	.st7{fill:#6A6DC7;stroke:#253540;stroke-width:4;stroke-miterlimit:10;}
	.st8{fill:none;stroke:#D1D3F5;stroke-width:4;stroke-linecap:round;stroke-miterlimit:10;}
	.st9{fill:none;stroke:#A3A6F1;stroke-width:4;stroke-linecap:round;stroke-linejoin:round;stroke-miterlimit:10;}
	.st10{fill:none;stroke:#6A6DC7;stroke-width:4;stroke-linecap:round;stroke-linejoin:round;stroke-miterlimit:10;}
	.st11{fill:none;stroke:#F5B126;stroke-width:4;stroke-linecap:round;stroke-linejoin:round;stroke-miterlimit:10;}
	.st12{fill:none;stroke:#FFFFFF;stroke-width:4;stroke-linecap:round;stroke-linejoin:round;stroke-miterlimit:10;}
	.st13{fill:none;stroke:#D6DDE3;stroke-width:4;stroke-linecap:round;stroke-linejoin:round;stroke-miterlimit:10;}
	.st14{fill:none;stroke:#3CB170;stroke-width:4;stroke-linecap:round;stroke-linejoin:round;stroke-miterlimit:10;}
	.st15{fill:#E52F28;stroke:#253540;stroke-width:4;stroke-linecap:round;stroke-linejoin:round;stroke-miterlimit:10;}
	.st16{fill:#FFA2A2;stroke:#253540;stroke-width:4;stroke-linecap:round;stroke-linejoin:round;stroke-miterlimit:10;}
	.st17{fill:none;stroke:#FFE3E2;stroke-width:4;stroke-linecap:round;stroke-linejoin:round;stroke-miterlimit:10;}
	.st18{fill:none;stroke:#D21B14;stroke-width:4;stroke-linecap:round;stroke-linejoin:round;stroke-miterlimit:10;}
	.st19{fill:#FFFFFF;stroke:#253540;stroke-width:4;stroke-linecap:round;stroke-linejoin:round;stroke-miterlimit:10;}
	.st20{fill:#E3E8EB;}
	.st21{fill:none;stroke:#BA1F19;stroke-width:4;stroke-linecap:round;stroke-linejoin:round;stroke-miterlimit:10;}
	.st22{fill:#C4F0CE;stroke:#253540;stroke-width:4;stroke-linejoin:round;stroke-miterlimit:10;}
	.st23{fill:#81DC9E;stroke:#253540;stroke-width:4;stroke-linejoin:round;stroke-miterlimit:10;}
	.st24{fill:#81DC9E;stroke:#253540;stroke-width:4;stroke-miterlimit:10;}
	.st25{fill:#FFFFFF;stroke:#253540;stroke-width:4;stroke-linejoin:round;stroke-miterlimit:10;}
	.st26{fill:none;stroke:#FFC646;stroke-width:4;stroke-linecap:round;stroke-miterlimit:10;}
	.st27{fill:none;stroke:#3197D6;stroke-width:4;stroke-linecap:round;stroke-miterlimit:10;}
	.st28{fill:none;stroke:#AEDFFF;stroke-width:4;stroke-linecap:round;stroke-miterlimit:10;}
	.st29{fill:none;stroke:#FFE8B5;stroke-width:4;stroke-linecap:round;stroke-miterlimit:10;}
	.st30{fill:none;stroke:#D79400;stroke-width:4;stroke-linecap:round;stroke-miterlimit:10;}
	.st31{fill:#B37100;stroke:#253540;stroke-width:4;stroke-linecap:round;stroke-linejoin:round;stroke-miterlimit:10;}
	.st32{fill:#875200;}
	.st33{fill:none;stroke:#FFFDF6;stroke-width:4;stroke-linecap:round;stroke-miterlimit:10;}
	.st34{fill:#72808E;stroke:#253540;stroke-width:4;stroke-linecap:round;stroke-linejoin:round;stroke-miterlimit:10;}
	.st35{fill:#D6DDE3;stroke:#253540;stroke-width:4;stroke-linecap:round;stroke-miterlimit:10;}
	.st36{fill:none;stroke:#C1CBD4;stroke-width:4;stroke-linecap:round;stroke-miterlimit:10;}
	.st37{fill:#72808E;stroke:#253540;stroke-width:4;stroke-linecap:round;stroke-miterlimit:10;}
	.st38{fill:#4F5D6B;}
	.st39{fill:#F9FAFA;stroke:#253540;stroke-width:4;stroke-linecap:round;stroke-miterlimit:10;}
	.st40{fill:#E3E8EB;stroke:#253540;stroke-width:4;stroke-linecap:round;stroke-miterlimit:10;}
	.st41{fill:#93A1AF;}
	.st42{fill:#C1CBD4;}
	.st43{fill:none;stroke:#FFFFFF;stroke-width:4;stroke-linecap:round;stroke-miterlimit:10;}
	.st44{fill:#4F5D6B;stroke:#253540;stroke-width:4;stroke-miterlimit:10;}
	.st45{fill:#F5B126;}
	.st46{fill:#93A1AF;stroke:#253540;stroke-width:4;stroke-miterlimit:10;}
	.st47{fill:#FFFFFF;stroke:#D79400;stroke-width:4;stroke-linecap:round;stroke-miterlimit:10;}
	.st48{fill:none;stroke:#F5B126;stroke-width:4;stroke-linecap:round;stroke-miterlimit:10;}
	.st49{fill:#EDDD38;stroke:#272822;stroke-width:4;stroke-linejoin:round;stroke-miterlimit:10;}
	.st50{fill:#F45B55;}
	.st51{fill:#FFE3E2;}
	.st52{fill:#F1F1F0;stroke:#272822;stroke-width:4;stroke-linecap:round;stroke-linejoin:round;stroke-miterlimit:10;}
	.st53{fill:#FFD56D;}
	.st54{fill:#C1CBD4;stroke:#253540;stroke-width:4;stroke-miterlimit:10;}
	.st55{fill:none;stroke:#253540;stroke-width:4;stroke-linecap:round;stroke-miterlimit:10;stroke-dasharray:8,8,92,8,4;}
	.st56{fill:#F9FAFA;stroke:#E52F28;stroke-width:4;stroke-linecap:round;stroke-linejoin:round;stroke-miterlimit:10;}
	.st57{fill:none;stroke:#93A1AF;stroke-width:4;stroke-linecap:round;stroke-miterlimit:10;}
	.st58{fill:#FFC646;stroke:#875200;stroke-width:4;stroke-linecap:round;stroke-linejoin:round;stroke-miterlimit:10;}
	.st59{fill:#81DC9E;}
	.st60{fill:none;stroke:#585B9E;stroke-width:4;stroke-miterlimit:10;}
	.st61{fill:none;stroke:#6A6DC7;stroke-width:4;stroke-linecap:round;stroke-miterlimit:10;}
	.st62{fill:#FFFFFF;stroke:#DD9400;stroke-width:4;stroke-linecap:round;stroke-linejoin:round;stroke-miterlimit:10;}
	.st63{fill:none;stroke:#FFC646;stroke-width:4;stroke-linecap:round;stroke-linejoin:round;stroke-miterlimit:10;}
	.st64{fill:#FFFFFF;stroke:#D21B14;stroke-width:4;stroke-linecap:round;stroke-linejoin:round;stroke-miterlimit:10;}
	.st65{fill:#E52F28;stroke:#BA1F19;stroke-width:4;stroke-linecap:round;stroke-linejoin:round;stroke-miterlimit:10;}
	.st66{fill:#FFC646;stroke:#DD9400;stroke-width:4;stroke-linecap:round;stroke-linejoin:round;stroke-miterlimit:10;}
	.st67{fill:#FFFFFF;stroke:#BA1F19;stroke-width:4;stroke-linecap:round;stroke-linejoin:round;stroke-miterlimit:10;}
	.st68{fill:#DD9400;stroke:#DD9400;stroke-width:4;stroke-linecap:round;stroke-linejoin:round;stroke-miterlimit:10;}
	.st69{fill:#BA1F19;}
	.st70{fill:#7F83E4;stroke:#585B9E;stroke-width:4;stroke-miterlimit:10;}
	.st71{fill:#FFFFFF;stroke:#585B9E;stroke-width:4;stroke-miterlimit:10;}
	.st72{fill:#585B9E;}
	.st73{fill:#A3A6F1;stroke:#585B9E;stroke-width:4;stroke-miterlimit:10;}
	.st74{fill:#6A6DC7;stroke:#585B9E;stroke-width:4;stroke-miterlimit:10;}
	.st75{fill:#A3A6F1;}
	.st76{fill:#C4F0CE;stroke:#3CB170;stroke-width:4;stroke-linejoin:round;stroke-miterlimit:10;}
	.st77{fill:#81DC9E;stroke:#3CB170;stroke-width:4;stroke-linejoin:round;stroke-miterlimit:10;}
	.st78{fill:#81DC9E;stroke:#3CB170;stroke-width:4;stroke-miterlimit:10;}
	.st79{fill:#FFFFFF;stroke:#3CB170;stroke-width:4;stroke-linejoin:round;stroke-miterlimit:10;}
	.st80{fill:none;stroke:#FED475;stroke-width:4;stroke-linecap:round;stroke-linejoin:round;stroke-miterlimit:10;}
	.st81{fill:none;stroke:#71BFF1;stroke-width:4;stroke-linecap:round;stroke-miterlimit:10;}
	.st82{fill:#253540;}
	.st83{fill:none;stroke:#253540;stroke-width:4;stroke-miterlimit:10;}
	.st84{fill:#FFC646;}
	.st85{fill:#FFF6E2;}
	.st86{fill:none;stroke:#D6DDE3;stroke-width:4;stroke-linecap:round;stroke-miterlimit:10;}
	.st87{fill:#B37100;stroke:#875200;stroke-width:4;stroke-linecap:round;stroke-linejoin:round;stroke-miterlimit:10;}
	.st88{fill:none;stroke:#FFD56D;stroke-width:4;stroke-linecap:round;stroke-linejoin:round;stroke-miterlimit:10;}
	.st89{fill:#394956;}
	.st90{fill:#FFC646;stroke:#D79400;stroke-width:4;stroke-linecap:round;stroke-miterlimit:10;}
	.st91{fill:#D79400;stroke:#D79400;stroke-width:2;stroke-miterlimit:10;}
	.st92{fill:#FFE8B5;stroke:#D79400;stroke-width:4;stroke-linecap:round;stroke-miterlimit:10;}
	.st93{fill:#FFC646;stroke:#D79400;stroke-width:4;stroke-linecap:round;stroke-linejoin:round;stroke-miterlimit:10;}
	.st94{fill:#FFA2A2;stroke:#BA1F19;stroke-width:4;stroke-linecap:round;stroke-linejoin:round;stroke-miterlimit:10;}
	.st95{fill:none;stroke:#D79400;stroke-width:4;stroke-linecap:round;stroke-linejoin:round;stroke-miterlimit:10;}
	.st96{fill:none;stroke:#E52F28;stroke-width:4;stroke-linecap:round;stroke-linejoin:round;stroke-miterlimit:10;}
	.st97{fill:#FFE8B5;stroke:#253540;stroke-width:4;stroke-linecap:round;stroke-linejoin:round;stroke-miterlimit:10;}
	.st98{fill:#D21B14;}
	.st99{fill:#FFC646;stroke:#253540;stroke-width:4;stroke-linejoin:round;stroke-miterlimit:10;}
	.st100{fill:#4BC27D;stroke:#253540;stroke-width:4;stroke-linejoin:round;stroke-miterlimit:10;}
	.st101{fill:#359E64;}
	.st102{fill:none;stroke:#359E64;stroke-width:4;stroke-linejoin:round;stroke-miterlimit:10;}
	.st103{fill:none;stroke:#E3E8EB;stroke-width:4;stroke-linejoin:round;stroke-miterlimit:10;}
	.st104{fill:#3CB170;}
	.st105{fill:none;stroke:#3CB170;stroke-width:4;stroke-linejoin:round;stroke-miterlimit:10;}
	.st106{fill:none;stroke:#4BC27D;stroke-width:4;stroke-linecap:round;stroke-linejoin:round;stroke-miterlimit:10;}
	.st107{fill:#7F83E4;stroke:#253540;stroke-width:4;stroke-miterlimit:10;}
	.st108{fill:#A3A6F1;stroke:#253540;stroke-width:4;stroke-miterlimit:10;}
	.st109{fill:#B4C0CA;stroke:#253540;stroke-width:4;stroke-miterlimit:10;}
	.st110{fill:#6A6DC7;}
	.st111{fill:#7F83E4;stroke:#253540;stroke-width:4;stroke-linecap:round;stroke-miterlimit:10;}
	.st112{fill:none;stroke:#253540;stroke-width:4;stroke-linecap:round;stroke-miterlimit:10;}
	.st113{fill:#D6DDE3;stroke:#253540;stroke-width:4;stroke-linecap:round;stroke-linejoin:round;stroke-miterlimit:10;}
	.st114{fill:#B4C0CA;}
	.st115{fill:#3197D6;stroke:#253540;stroke-width:4;stroke-linecap:round;stroke-linejoin:round;stroke-miterlimit:10;}
	.st116{fill:none;stroke:#AEDFFF;stroke-width:4;stroke-linecap:round;stroke-linejoin:round;stroke-miterlimit:10;}
	.st117{fill:none;stroke:#93A1AF;stroke-width:4;stroke-linecap:round;stroke-linejoin:round;stroke-miterlimit:10;}
	.st118{fill:#4F5D6B;stroke:#253540;stroke-width:4;stroke-linecap:round;stroke-linejoin:round;stroke-miterlimit:10;}
	.st119{fill:#237AB3;}
	.st120{fill:none;stroke:#FFE8B5;stroke-width:4;stroke-linecap:round;stroke-linejoin:round;stroke-miterlimit:10;}
	.st121{fill:#FFFFFF;}
</style>
<g id="Layer_1">
	<path class="st3" d="M85.9,28.1L23.5,90.5C21.3,92.7,20,95.8,20,99v79c0,11,9,20,20,20h120c11,0,20-9,20-20V99
		c0-3.2-1.3-6.2-3.5-8.5l-62.3-62.3C106.3,20.3,93.7,20.3,85.9,28.1z"/>
	<path class="st5" d="M170,106.5V166c0,9.9-8.1,18-18,18H32c-3.6,0-6.9-1.1-9.7-2.9c1.5,8.4,8.9,14.9,17.7,14.9h120
		c9.9,0,18-8.1,18-18V99c0-0.2,0-0.3,0-0.4L170,106.5z"/>
	<g>
		<g>
			<line class="st11" x1="190" y1="46" x2="190" y2="62"/>
			<line class="st11" x1="182" y1="54" x2="198" y2="54"/>
		</g>
	</g>
	<g>
		<g>
			<line class="st11" x1="46" y1="16" x2="46" y2="28"/>
			<line class="st11" x1="40" y1="22" x2="52" y2="22"/>
		</g>
	</g>
	<g>
		<g>
			<line class="st11" x1="144" y1="2" x2="144" y2="14"/>
			<line class="st11" x1="138" y1="8" x2="150" y2="8"/>
		</g>
	</g>
	<g>
		<g>
			<line class="st12" x1="114" y1="56" x2="114" y2="72"/>
			<line class="st12" x1="106" y1="64" x2="122" y2="64"/>
		</g>
	</g>
	<circle class="st11" cx="10" cy="59" r="8"/>
	<circle class="st12" cx="157" cy="148" r="6"/>
	<path class="st97" d="M22,96l50,50l13.9-13.9c7.8-7.8,20.5-7.8,28.3,0L128,146l50-50H22z"/>
	<line class="st4" x1="128" y1="146" x2="174" y2="192"/>
	<line class="st4" x1="72" y1="146" x2="26" y2="192"/>
	<g>
		<g>
			<line class="st12" x1="72" y1="104" x2="72" y2="120"/>
			<line class="st12" x1="64" y1="112" x2="80" y2="112"/>
		</g>
	</g>
	<g>
		<line class="st0" x1="178" y1="198" x2="20" y2="198"/>
		<line class="st4" x1="186" y1="198" x2="190" y2="198"/>
		<line class="st4" x1="10" y1="198" x2="12" y2="198"/>
	</g>
</g>
<g id="Layer_2">
</g>
</svg>
